src/images/circuits/saudi.svg

<svg width="40" height="24" viewBox="0 0 40 24" fill="none" xmlns="http://www.w3.org/2000/svg">
<path d="M32.0557 5.03105L37.9941 1.16699C38.6379 0.66495 39.2105 1.31129 38.9243 2.88533C38.6381 4.45937 36.8495 7.24971 34.9177 8.96684C32.9859 10.684 30.6249 10.3978 29.8378 10.2547C29.0508 10.1116 27.1906 10.5409 26.976 11.1848C26.7613 11.8287 25.9027 12.9735 24.6864 13.045C23.4701 13.1166 21.0375 14.476 20.6798 15.3345C20.3221 16.1931 18.9627 17.4094 18.2472 17.4094C17.5317 17.4094 16.1008 17.8387 15.743 18.4826C15.3853 19.1265 13.2389 20.3428 12.5234 20.629C11.808 20.9152 10.9494 20.9152 10.7347 20.629C10.5201 20.3428 10.0908 19.9136 9.51845 20.1282C8.94607 20.3428 7.51512 20.1997 7.15739 20.1282C6.79965 20.0567 6.08418 20.4144 5.15407 20.7006C4.22395 20.9868 3.43694 22.4893 2.86456 22.847C2.29218 23.2047 1.57673 23.1332 1.0759 22.4177C0.675236 21.8453 1.95817 21.1776 2.64971 20.9152C4.00923 20.3428 6.81413 19.1552 7.15756 18.9834C7.58684 18.7688 8.94584 18.9834 9.58977 18.6257C10.2337 18.268 11.3786 18.5542 11.5933 18.8403C11.8079 19.1265 12.0941 19.5558 13.7397 19.1981C15.3853 18.8403 14.7413 17.4094 15.3852 16.9801C16.0291 16.5508 17.031 16.6939 17.9611 16.5508C18.6281 16.4482 18.9233 15.5715 19.0116 15.013C19.0299 14.8975 19.079 14.7882 19.1639 14.7077C19.4706 14.4165 19.9993 13.9577 20.3936 13.7605C20.8387 13.5379 22.4468 12.6663 23.2591 12.2235C23.3043 12.1989 23.3528 12.1815 23.4033 12.1717L24.9116 11.8798C25.2126 11.8215 25.3572 11.4755 25.1871 11.2204C25.0652 11.0375 25.1012 10.7921 25.2704 10.6519L32.0557 5.03105Z" stroke="#FF0000"/>
</svg>

<svg width="40" height="24" fill="none" xmlns="http://www.w3.org/2000/svg"><path d="m32.056 5.031 5.938-3.864c.644-.502 1.217.144.93 1.718-.286 1.574-2.075 4.365-4.006 6.082-1.932 1.717-4.293 1.43-5.08 1.288-.787-.143-2.647.286-2.862.93-.215.644-1.073 1.788-2.29 1.86-1.216.072-3.648 1.431-4.006 2.29-.358.858-1.717 2.074-2.433 2.074-.715 0-2.146.43-2.504 1.074-.358.643-2.504 1.86-3.22 2.146-.715.286-1.574.286-1.788 0-.215-.286-.644-.715-1.217-.5-.572.214-2.003.07-2.36 0-.358-.072-1.074.285-2.004.572-.93.286-1.717 1.788-2.29 2.146-.572.358-1.287.286-1.788-.43-.4-.572.882-1.24 1.574-1.502 1.36-.572 4.164-1.76 4.508-1.932.429-.214 1.788 0 2.432-.357.644-.358 1.789-.072 2.003.214.215.287.501.716 2.147.358 1.645-.358 1.001-1.789 1.645-2.218.644-.43 1.646-.286 2.576-.43.667-.102.962-.979 1.05-1.537a.53.53 0 0 1 .153-.305c.307-.292.835-.75 1.23-.947.445-.223 2.053-1.095 2.865-1.537a.5.5 0 0 1 .144-.052l1.509-.292a.43.43 0 0 0 .275-.66.43.43 0 0 1 .083-.568l6.786-5.62Z" stroke="red"/></svg>
